fs/globe_video_24_filled.svg

<svg viewBox="0 0 24 24" fill="none" xmlns="http://www.w3.org/2000/svg" height="1em" width="1em">
  <path d="M8.90517 16.5002H11.0007V21.4999L11.0008 21.5249C10.1709 20.7391 9.42089 19.0291 8.96322 16.7947L8.90517 16.5002ZM8.67489 15.0002H11.0505C11.2818 13.8585 12.2908 12.9991 13.5005 12.9991H15.4828C15.4954 12.6705 15.5018 12.337 15.5018 11.9995C15.5018 11.3136 15.4751 10.6447 15.4248 9.99903H8.57643L8.5432 10.4876C8.51447 10.9802 8.4994 11.4851 8.4994 11.9995C8.4994 13.0466 8.56185 14.0543 8.67489 15.0002ZM21.6677 13.6854C21.7367 13.6393 21.8074 13.5999 21.8792 13.5668C21.9595 13.0561 22.0012 12.5327 22.0012 11.9995C22.0012 11.3144 21.9324 10.6454 21.8012 9.99899L16.9316 9.99961L16.9703 10.6555C16.9911 11.0966 17.0017 11.5451 17.0017 11.9995C17.0017 12.3361 16.9959 12.6695 16.9844 12.9991H18.5C19.4564 12.9991 20.2874 13.5363 20.7077 14.3255L21.6677 13.6854ZM3.06726 16.5004L7.37249 16.5002C7.73723 18.5826 8.35546 20.3543 9.16452 21.5941C6.60192 20.8371 4.46846 19.0822 3.21359 16.7793L3.06726 16.5004ZM2.20004 9.99899L7.06962 9.99961C7.02338 10.6496 6.99954 11.3179 6.99954 11.9995C6.99954 12.8289 7.03484 13.6388 7.10287 14.4199L7.15999 15.0001H2.45779C2.16035 14.0529 2 13.0449 2 11.9995C2 11.3144 2.06886 10.6454 2.20004 9.99899ZM14.9446 2.57517L14.8367 2.40492C17.8548 3.29598 20.2786 5.5728 21.3717 8.49881L16.7812 8.49911C16.4657 6.08195 15.8248 4.00608 14.9446 2.57517ZM9.04267 2.44174L9.16444 2.40496C8.28376 3.7546 7.62921 5.73439 7.28159 8.05923L7.22003 8.49911L2.62957 8.49881C3.70793 5.61228 6.08131 3.35754 9.04267 2.44174ZM12.0006 2C13.3193 2 14.646 4.54199 15.2143 8.18402L15.2611 8.49885H8.7401C9.27946 4.68932 10.6443 2 12.0006 2ZM12.001 15.4993C12.001 14.6708 12.6725 13.9992 13.5009 13.9992H18.5004C19.3288 13.9992 20.0003 14.6708 20.0003 15.4993V15.9993L22.2227 14.5174C22.555 14.2959 23 14.5341 23 14.9335V22.0657C23 22.465 22.555 22.7033 22.2227 22.4817L20.0003 20.9998V21.4999C20.0003 22.3284 19.3288 23 18.5004 23H13.5009C12.6725 23 12.001 22.3284 12.001 21.4999V15.4993Z" fill="#212121"/>
</svg>

<svg viewBox="0 0 24 24" fill="none" xmlns="http://www.w3.org/2000/svg" height="1em" width="1em">
  <path d="M8.905 16.5h2.096v5.025c-.83-.786-1.58-2.496-2.038-4.73l-.058-.295Zm-.23-1.5h2.375a2.5 2.5 0 0 1 2.45-2h1.983a26.1 26.1 0 0 0-.058-3.001H8.576l-.033.489A25.986 25.986 0 0 0 8.675 15Zm12.993-1.315c.069-.046.14-.085.211-.118a10.085 10.085 0 0 0-.078-3.568h-4.87l.04.656A28.547 28.547 0 0 1 16.983 13H18.5a2.5 2.5 0 0 1 2.208 1.326l.96-.64ZM3.068 16.5h4.304c.365 2.083.983 3.854 1.793 5.094a10.028 10.028 0 0 1-5.951-4.815l-.147-.279ZM2.2 10h4.87a28.215 28.215 0 0 0 .033 4.42l.057.58H2.458a10.05 10.05 0 0 1-.258-5Zm12.745-7.424-.108-.17A10.026 10.026 0 0 1 21.372 8.5h-4.59c-.316-2.417-.957-4.493-1.837-5.924Zm-5.902-.133.121-.037c-.88 1.35-1.535 3.33-1.882 5.654l-.062.44H2.63a10.028 10.028 0 0 1 6.413-6.057ZM12 2c1.318 0 2.645 2.542 3.213 6.184l.047.315H8.74C9.278 4.689 10.643 2 12 2Zm0 13.5a1.5 1.5 0 0 1 1.5-1.5h5a1.5 1.5 0 0 1 1.5 1.5v.5l2.222-1.483a.5.5 0 0 1 .777.417v7.132a.5.5 0 0 1-.777.416L20 21v.5a1.5 1.5 0 0 1-1.5 1.5h-5a1.5 1.5 0 0 1-1.499-1.5v-6Z" fill="#212121"/>
</svg>
